X:10
T:Bakmes'n
C:Johansson
R:Polska
Z:Anton Teljebäck 2007-12-01
O:Lima, Dalarna
M:3/4
L:1/8
K:D
(.D>.F) (.A>.B) A>G | (.F>.A) (3BGB A2 | (.D>.F) (.A>.B) A>G | (3FDF (3ECE D2 |
(.D>.F) (.A>.B) A>G | (.F>.A) (3BGB (.A>.c) | d>e (3fdf (.e>.c) | d2 d4 :|
A/ | c>d e2 e2 | e>f g2 g2 | (3efg (g<f) e>d | (d<c) e4 | A>c e2 e2 | e>f g2 g2 | (3efg (g<f) e>d | (d<c) d4|
 A>c e2 e2 | e>f g2 g2 | (3efg (g<f) e>d | (d<c) e4 | A>c e2 e2 | e>f g2 g2 | (3efg (g<f) e>d | (d<c) d4|
(:musicend:)

(:music:)
